frontend/public/assets/material-icons/folder-container-open.svg

<svg xmlns="http://www.w3.org/2000/svg" viewBox="0 0 32 32">
  <path d="M28.96692,12H9.44152a2,2,0,0,0-1.89737,1.36754L4,24V10H28a2,2,0,0,0-2-2H15.1241a2,2,0,0,1-1.28038-.46357L12.5563,6.46357A2,2,0,0,0,11.27592,6H4A2,2,0,0,0,2,8V24a2,2,0,0,0,2,2H26l4.80523-11.21213A2,2,0,0,0,28.96692,12Z" style="fill: #0288d1"/>
  <path d="M31.53223,14.15332l-8.085-4.04785a1.00109,1.00109,0,0,0-.89454,0l-8.085,4.04785A1.00062,1.00062,0,0,0,14,15V25a.99985.99985,0,0,0,.55273.89453L22.599,29.90546a.89771.89771,0,0,0,.802,0l8.04627-4.01093A.99985.99985,0,0,0,32,25V15A1.00062,1.00062,0,0,0,31.53223,14.15332ZM22,27.38184l-6-3V16.59131l6,2.88818Zm1-9.64038-5.73-2.75831,5.73-2.865,5.73,2.865Zm7,6.64038-6,3V19.47949l6-2.88818Z" style="fill: #b3e5fc"/>
</svg>

<svg xmlns="http://www.w3.org/2000/svg" viewBox="0 0 32 32"><path fill="#0288d1" d="M28.967 12H9.442a2 2 0 0 0-1.898 1.368L4 24V10h24a2 2 0 0 0-2-2H15.124a2 2 0 0 1-1.28-.464l-1.288-1.072A2 2 0 0 0 11.276 6H4a2 2 0 0 0-2 2v16a2 2 0 0 0 2 2h22l4.805-11.212A2 2 0 0 0 28.967 12"/><path fill="#b3e5fc" d="m31.532 14.153-8.085-4.048a1 1 0 0 0-.894 0l-8.085 4.048A1 1 0 0 0 14 15v10a1 1 0 0 0 .553.895l8.046 4.01a.9.9 0 0 0 .802 0l8.046-4.01A1 1 0 0 0 32 25V15a1 1 0 0 0-.468-.847M22 27.382l-6-3v-7.79l6 2.887Zm1-9.64-5.73-2.759L23 12.118l5.73 2.865Zm7 6.64-6 3v-7.903l6-2.888Z"/></svg>
